X:1
T:Title
%%score { ( 1 3 ) | 2 }
L:1/8
M:9/8
K:Ab
V:1 treble nm="Grand Piano"
V:3 treble 
V:2 bass 
V:1
 z3 z3[Q:1/4=100] EAB | c3 c2 c dcB | c3 A3 [EA][EB][Ec] | B3 B2 c dcB | c6 EAB | c3 c2 A ABc | %6
 [Fd]3 [Fd]3 [Fd][Fc][FB] | [Ae]3 [Ae]2 d ccB |[M:3/4] [A,CA]6 |[M:3/8] z Bc | %10
[M:9/8] [Fd]3 [Fd]3 z3 |[M:3/4] [Ec]4 z2 |[M:3/8] cde |[M:9/8] e3 [Ec]2 [Ec] [=Dc][DB][DA] | %14
 B6 BBc | [Gd]3 [Gd]3 [Bd][Ac][GB] | c3 c3 EAc | e3 e2 [FAd] [EAc][EAc][DGB] |[M:3/4] [CA]6 |] %19
V:2
 z3 z3 [A,C][A,C][A,D] | [A,E]3 [A,E]2 [A,E] [E,B,E][E,A,E][E,G,E] | %2
 [A,E]3 [A,C]3 [C,A,][B,,G,][A,,A,] | [E,G,E]3 [E,G,E]2 [E,A,E] [E,B,E][E,A,E][E,G,E] | %4
 [A,E]6 [A,C][A,C][A,D] | [A,E]3 [A,E]2 [A,C] [A,C][A,D][A,E] | %6
 [D,A,]3 [D,A,]3 [D,A,][D,A,][=D,A,] | [E,C]3 [E,C]2 [E,B,E] [E,A,E][E,A,E][E,G,D] |[M:3/4] A,,6 | %9
[M:3/8][K:treble] AG_G |[M:9/8][K:bass] [D,A,]D,D, [D,A,]2 D, CDC |[M:3/4] [A,,A,]C, E, A,2 A, | %12
[M:3/8][K:treble] [A,EA][A,DA][A,CA] | %13
[M:9/8] [A,CA]3[K:bass] [A,,A,]2 [A,,A,] [B,,A,][B,,A,][B,,A,] | [E,G,E]6 [E,G,E][E,G,E][E,A,E] | %15
 [E,B,]3 [E,B,]3 [E,E][E,E][E,E] | [A,EA]3 [A,EA]3 [A,C][A,C][A,E] | %17
 [A,CA]3 [A,CA]2[K:bass] D, E,E,E, |[M:3/4] A,,6 |] %19
V:3
 x9 | x9 | x9 | x9 | x9 | x9 | x9 | x9 |[M:3/4] x6 |[M:3/8] x3 |[M:9/8] z A,A, z2 A, EFE | %11
[M:3/4] z A, A, [Ec]3 |[M:3/8] x3 |[M:9/8] x9 | x9 | x9 | x9 | x9 |[M:3/4] x6 |] %19

